X:1
T:Title
%%score ( 1 2 ) ( 3 4 )
L:1/8
M:4/4
K:C
V:1 treble nm="Grand Piano, Piano"
V:2 treble 
V:3 bass nm="Grand Piano, Piano"
V:4 bass 
V:1
 z4 z2[Q:1/4=100] G2 | [Ec]2 [Fc]2 [Gc]2 EF | G3 A [CG]4 | [CE]2 FG C2 [B,D]2 | [CE]6 [DG]2 | %5
w: 1.~I~|sing~ a~ song~ of~ the~|saints~ of~ God,~|pa tient~ and~ brave~ and~|true,~ who~|
 [Cc]2 [Ec]2 B2 G2 | z4 G2 z2 | [B,D]2 [DG]2 [EA]2 [^FB]2 | [DG]6 [DG]2 | C2- [C-E][CE] z2 DE | %10
w: toiled~ and~ fought~ and~|died~|Lord~ they~ loved~ and~|knew.~ And~|one~ was~ a~ tor,~ and~|
 F2 FF B,2- [B,-E][B,F] |[M:2/4] G2 G2 | E2 FG |[M:4/4] [CA]2 A2 B2 AG | [Cc]2 [Ec]2 B2 G2 | %15
w: one~ was~ a~ queen,~ and~ *|one~ was~|shep herd ess~|on~ the~ green;~ they~ were~|all~ of~ saints~ of~|
 [CA]2 BA [CG]2 [Cc]2 | [CA]2 [EG][DF] [CE]2 [B,D]2 |[M:3/4] C6 |] %18
w: God,~ and~ I~ mean,~ God~|hel ping,~ to~ be~ one~|too.~|
V:2
 x8 | z4 z2 C2 | D2 B,2 z4 | x8 | x8 | z4 E4 | [CA]2 [B,A]2 C2- [CE]2 | x8 | x8 | E2 z2 C4 | %10
w: ||||||* and~ * *||||
 D4 D2 z2 |[M:2/4] C4 | C4 |[M:4/4] z4 D4 | z4 E4 | z2 B,2 z4 | x8 |[M:3/4] x6 |] %18
w: ||||||||
V:3
 z4 z2 G,2 | C6 z2 | [G,B,]2 [F,G,]2 [E,G,]4 | A,2 [F,A,]2 [E,G,]2 G,2 | [C,G,]6 [B,,G,]2 | %5
 A,4 G,2 z2 | z4 G,4 | D,2- [D,B,]2 C2 D2 | [G,B,]6 [B,,G,]2 | [C,G,]4 [F,A,]4 | z4 G,4 | %11
[M:2/4] [E,G,]4 | A,4 |[M:4/4] [F,A,]4 [F,G,]4 | z4 G,2 z2 | z4 z2 A,2 | z4 z2 .G,2 | %17
[M:3/4] [C,E,]6 |] %18
V:4
 x8 | C,2 D,2 E,2 [A,C]2 | x8 | x8 | x8 | A,,2 C,2 E,2- [E,B,]2 | [F,A,]2 [F,G,]2 E,2 C,2 | %7
 G,2 z2 D,4 | x8 | x8 | [D,A,]4 z2 F,2 |[M:2/4] x4 | x4 |[M:4/4] x8 | %14
 [E,G,]2 [A,,A,]2 E,2- [E,B,]2 | [F,A,]2 [F,G,]2 [E,G,]2 z G, | [F,A,]2 [D,A,]2 G,2 G,,-[G,,F,] | %17
[M:3/4] x6 |] %18

